src/main/resources/icons/AllIcons/providers/couchbase.svg

<svg width="16" height="16" viewBox="0 0 16 16" fill="none" xmlns="http://www.w3.org/2000/svg">
<path d="M8 1C4.14048 1 1 4.12993 1 8C1 11.8595 4.12993 15 8 15C11.8595 15 15 11.8701 15 8C15 4.12993 11.8595 1 8 1ZM12.7266 9.22659C12.7266 9.64954 12.4834 10.0197 12.0076 10.1042C11.1828 10.2523 9.44862 10.3369 8 10.3369C6.55133 10.3369 4.81719 10.2523 3.99245 10.1042C3.51666 10.0197 3.27341 9.64954 3.27341 9.22659V6.4985C3.27341 6.07555 3.60121 5.68431 3.99245 5.62082C4.23564 5.57855 4.80663 5.53627 5.2508 5.53627C5.41995 5.53627 5.55738 5.66315 5.55738 5.86407V7.77797L8.01055 7.72509L10.4637 7.77797V5.86407C10.4637 5.66315 10.6012 5.53627 10.7704 5.53627C11.2145 5.53627 11.7855 5.57855 12.0287 5.62082C12.4305 5.68426 12.7477 6.07555 12.7477 6.4985C12.7266 7.39729 12.7266 8.31724 12.7266 9.22659Z" fill="#ED2226"/>
<path d="M12.7266 9.2266C12.7266 9.64955 12.4834 10.0197 12.0076 10.1042C11.1828 10.2523 9.44862 10.3369 8 10.3369C6.55133 10.3369 4.81719 10.2523 3.99245 10.1042C3.51666 10.0197 3.27341 9.64955 3.27341 9.2266V6.49851C3.27341 6.07556 3.60121 5.68432 3.99245 5.62083C4.23564 5.57856 4.80663 5.53629 5.2508 5.53629C5.41995 5.53629 5.55738 5.66316 5.55738 5.86408V7.77798L8.01055 7.7251L10.4637 7.77798V5.86408C10.4637 5.66316 10.6012 5.53629 10.7704 5.53629C11.2145 5.53629 11.7855 5.57856 12.0287 5.62083C12.4305 5.68427 12.7477 6.07556 12.7477 6.49851C12.7266 7.3973 12.7266 8.31725 12.7266 9.2266Z" fill="white"/>
</svg>

<svg width="16" height="16" viewBox="0 0 16 16" fill="none" xmlns="http://www.w3.org/2000/svg"><rect id="frame" width="16" height="16" fill="none"/><path d="M8 1C4.14 1 1 4.13 1 8c0 3.86 3.13 7 7 7 3.86 0 7-3.13 7-7s-3.14-7-7-7zm4.727 8.227c0 .423-.244.793-.72.877-.824.148-2.558.233-4.007.233-1.449 0-3.183-.085-4.008-.233-.475-.084-.719-.454-.719-.877V6.498c0-.422.328-.814.72-.877a9.407 9.407 0 0 1 1.258-.085c.169 0 .306.127.306.328v1.914l2.454-.053 2.453.053V5.864c0-.2.137-.328.306-.328.444 0 1.016.043 1.259.085.402.063.719.455.719.877-.021.9-.021 1.82-.021 2.729z" fill="#ED2226"/><path d="M12.727 9.227c0 .423-.244.793-.72.877-.824.148-2.558.233-4.007.233-1.449 0-3.183-.085-4.008-.233-.475-.084-.719-.454-.719-.877V6.499c0-.423.328-.815.72-.878a9.407 9.407 0 0 1 1.258-.085c.169 0 .306.127.306.328v1.914l2.454-.053 2.453.053V5.864c0-.2.137-.328.306-.328.444 0 1.016.043 1.259.085.402.063.719.455.719.878-.021.898-.021 1.818-.021 2.728z" fill="#fff"/></svg>
